assets/icons/librescoot-internet-cloud-connected.svg

<svg width="144" height="144" viewBox="0 0 144 144" fill="none" xmlns="http://www.w3.org/2000/svg">
    <g clip-path="url(#clip0_400_466)">
        <g>
                <path d="M37.65 119.999C28.85 119.999 21.375 116.924 15.225 110.774C9.075 104.624 6 97.1494 6 88.3494C6 80.5494 8.5 73.6994 13.5 67.7994C18.5 61.8994 24.85 58.3494 32.55 57.1494C34.55 47.4494 39.25 39.5244 46.65 33.3744C54.05 27.2244 62.6 24.1494 72.3 24.1494C83.5 24.1494 92.95 28.2244 100.65 36.3744C108.35 44.5244 112.2 54.2994 112.2 65.6994V69.2994C119.4 69.0994 125.5 71.4244 130.5 76.2744C135.5 81.1244 138 87.2494 138 94.6494C138 101.549 135.5 107.499 130.5 112.499C125.5 117.499 119.55 119.999 112.65 119.999H37.65ZM37.65 110.999H112.65C117.15 110.999 121 109.399 124.2 106.199C127.4 102.999 129 99.1494 129 94.6494C129 90.1494 127.4 86.2994 124.2 83.0994C121 79.8994 117.15 78.2994 112.65 78.2994H103.2V65.6994C103.2 56.5994 100.15 48.8994 94.05 42.5994C87.95 36.2994 80.5 33.1494 71.7 33.1494C62.9 33.1494 55.425 36.2994 49.275 42.5994C43.125 48.8994 40.05 56.5994 40.05 65.6994H37.2C31 65.6994 25.75 67.8744 21.45 72.2244C17.15 76.5744 15 81.9494 15 88.3494C15 94.6494 17.2 99.9994 21.6 104.399C26 108.799 31.35 110.999 37.65 110.999Z" fill="white"/>
        </g>
    </g>
    <defs>
        <clipPath id="clip0_400_466">
            <rect width="144" height="144" fill="white"/>
        </clipPath>
    </defs>
</svg>

<svg xmlns="http://www.w3.org/2000/svg" width="144" height="144" fill="none" viewBox="0 0 144 144"><g clip-path="url(#a)"><path fill="#fff" d="M37.65 119.999q-13.2 0-22.425-9.225C9.075 104.624 6 97.1494 6 88.3494q0-11.7 7.5-20.55t19.05-10.65q3-14.55 14.1-23.775t25.65-9.225q16.8 0 28.35 12.225t11.55 29.325v3.6q10.8-.3 18.3 6.975t7.5 18.375q0 10.3495-7.5 17.8496t-17.85 7.5zm0-9h75q6.75 0 11.55-4.8c3.2-3.2 4.8-7.0496 4.8-11.5496q0-6.75-4.8-11.55t-11.55-4.8h-9.45v-12.6q0-13.65-9.15-23.1t-22.35-9.45-22.425 9.45-9.225 23.1H37.2q-9.3 0-15.75 6.525T15 88.3494q0 9.4501 6.6 16.0496 6.6 6.6 16.05 6.6"/></g><defs><clipPath id="a"><path fill="#fff" d="M0 0h144v144H0z"/></clipPath></defs></svg>
